;FLAVOR:Marlin
;TIME:3242
;Filament used: 2.0021m
;Layer height: 0.2
;MINX:36.394
;MINY:36.515
;MINZ:0.2
;MAXX:74.555
;MAXY:94.434
;MAXZ:33
;TARGET_MACHINE.NAME:Creality Ender-3 Pro
;Generated with Cura_SteamEngine 5.7.1
M82 ;absolute extrusion mode
; Ender 3 Custom Start G-code
G92 E0 ; Reset Extruder
G28 ; Home all axes
G1 Z5.0 F3000 ; Move Z Axis up a bit during heating to not damage bed
M104 S200 ; Start heating up the nozzle most of the way
M190 S110.0 ; Start heating the bed, wait until target temperature reached
M109 S233.3 ; Finish heating the nozzle
G1 Z2.0 F3000 ; Move Z Axis up little to prevent scratching of Heat Bed
G1 X0.1 Y20 Z0.3 F5000.0 ; Move to start position
G1 X0.1 Y200.0 Z0.3 F1500.0 E15 ; Draw the first line
G1 X0.4 Y200.0 Z0.3 F5000.0 ; Move to side a little
G1 X0.4 Y20 Z0.3 F1500.0 E30 ; Draw the second line
G92 E0 ; Reset Extruder
G1 Z2.0 F3000 ; Move Z Axis up little to prevent scratching of Heat Bed
G1 X5 Y20 Z0.3 F5000.0 ; Move over to prevent blob squish
G92 E0
G92 E0
G1 F1500 E-6.5
;LAYER_COUNT:165
;LAYER:0
M107
G0 F6000 X40.363 Y42.258 Z0.2
;TYPE:SKIRT
G1 F1500 E0
G1 F1200 X40.932 Y41.722 E0.026
G1 X41.58 Y41.16 E0.05453
G1 X42.216 Y40.651 E0.08162
G1 X42.951 Y40.113 E0.11192
G1 X43.623 Y39.665 E0.13878
G1 X44.399 Y39.195 E0.16895
G1 X45.095 Y38.812 E0.19538
G1 X45.909 Y38.408 E0.2256
G1 X46.668 Y38.073 E0.2532
G1 X47.521 Y37.738 E0.28368
G1 X48.284 Y37.476 E0.31051
G1 X49.141 Y37.22 E0.34026
G1 X49.906 Y37.027 E0.3665
G1 X50.76 Y36.849 E0.39551
G1 X51.528 Y36.723 E0.4214
G1 X52.421 Y36.614 E0.45132
G1 X53.254 Y36.548 E0.47911
G1 X54.157 Y36.515 E0.50917
G1 X54.928 Y36.519 E0.53481
G1 X55.78 Y36.559 E0.56318
G1 X56.621 Y36.635 E0.59127
G1 X57.513 Y36.754 E0.6212
G1 X58.326 Y36.897 E0.64865
G1 X59.202 Y37.091 E0.67849
G1 X59.941 Y37.288 E0.70393
G1 X60.637 Y37.498 E0.72811
G1 X61.324 Y37.737 E0.7523
G1 X61.747 Y37.896 E0.76733
G1 X62.42 Y38.176 E0.79158
G1 X63.108 Y38.49 E0.81673
G1 X63.778 Y38.827 E0.84168
G1 X64.409 Y39.175 E0.86564
G1 X64.799 Y39.403 E0.88067
G1 X65.42 Y39.794 E0.90508
G1 X66.02 Y40.203 E0.92923
G1 X66.602 Y40.629 E0.95322
G1 X67.541 Y41.393 E0.99348
G1 X68.09 Y41.886 E1.01802
G1 X68.632 Y42.409 E1.04307
G1 X69.213 Y43.016 E1.07102
G1 X69.76 Y43.638 E1.09857
G1 X70.225 Y44.207 E1.12301
G1 X70.732 Y44.886 E1.15119
G1 X71.002 Y45.271 E1.16683
G1 X71.376 Y45.842 E1.18954
G1 X71.744 Y46.445 E1.21303
G1 X72.159 Y47.188 E1.24134
G1 X72.513 Y47.889 E1.26746
G1 X72.829 Y48.574 E1.29255
G1 X73.004 Y48.993 E1.30765
G1 X73.297 Y49.751 E1.33468
G1 X73.523 Y50.416 E1.35804
G1 X73.734 Y51.117 E1.38239
G1 X73.921 Y51.818 E1.40652
G1 X74.164 Y52.948 E1.44496
G1 X74.283 Y53.678 E1.46956
G1 X74.38 Y54.441 E1.49515
G1 X74.454 Y55.313 E1.52425
G1 X74.488 Y56.106 E1.55065
G1 X74.495 Y56.837 E1.57497
G1 X74.472 Y57.54 E1.59836
G1 X74.429 Y58.316 E1.62421
G1 X74.28 Y60.49 E1.69669
G1 X74.175 Y63.064 E1.78237
G1 X74.144 Y65.54 E1.86473
G1 X74.184 Y68.038 E1.94782
G1 X74.385 Y71.949 E2.07808
G1 X74.479 Y73.315 E2.12362
G1 X74.523 Y74.441 E2.1611
G1 X74.555 Y75.89 E2.2093
G1 X74.532 Y76.864 E2.24171
G1 X74.432 Y77.762 E2.27176
G1 X74.226 Y78.785 E2.30647
G1 X73.97 Y79.651 E2.3365
G1 X73.668 Y80.442 E2.36466
G1 X72.879 Y82.277 E2.4311
G1 X72.379 Y83.341 E2.4702
G1 X71.965 Y84.122 E2.4996
G1 X71.532 Y84.863 E2.52814
G1 X71.034 Y85.638 E2.55878
G1 X70.593 Y86.261 E2.58417
G1 X70.06 Y86.951 E2.61317
G1 X69.511 Y87.603 E2.64152
G1 X68.883 Y88.286 E2.67238
G1 X68.313 Y88.854 E2.69914
G1 X67.747 Y89.379 E2.72482
G1 X67.175 Y89.867 E2.74983
G1 X66.85 Y90.129 E2.76371
G1 X66.249 Y90.582 E2.78874
G1 X65.602 Y91.035 E2.81501
G1 X64.872 Y91.502 E2.84384
G1 X64.192 Y91.899 E2.87003
G1 X63.354 Y92.339 E2.90151
G1 X62.59 Y92.698 E2.92958
G1 X61.757 Y93.046 E2.95961
G1 X61.01 Y93.323 E2.98611
G1 X60.322 Y93.551 E3.01021
G1 X59.557 Y93.769 E3.03667
G1 X58.695 Y93.976 E3.06616
G1 X58.244 Y94.068 E3.08147
G1 X57.541 Y94.192 E3.10521
G1 X56.788 Y94.295 E3.13049
G1 X56.012 Y94.371 E3.15642
G1 X55.118 Y94.422 E3.1862
G1 X54.274 Y94.434 E3.21428
G1 X53.344 Y94.406 E3.24522
G1 X52.575 Y94.348 E3.27087
G1 X51.736 Y94.252 E3.29896
G1 X50.907 Y94.124 E3.32686
G1 X49.958 Y93.933 E3.35906
G1 X49.183 Y93.74 E3.38562
G1 X48.336 Y93.49 E3.41499
G1 X47.55 Y93.222 E3.44261
G1 X46.688 Y92.886 E3.47338
G1 X45.968 Y92.569 E3.49955
G1 X45.296 Y92.243 E3.52439
G1 X44.599 Y91.868 E3.55072
G1 X44.198 Y91.638 E3.56609
G1 X43.577 Y91.255 E3.59036
G1 X42.975 Y90.853 E3.61444
G1 X42.254 Y90.327 E3.64412
G1 X41.618 Y89.822 E3.67113
G1 X41.032 Y89.32 E3.69679
G1 X40.445 Y88.775 E3.72344
G1 X40.174 Y88.509 E3.73607
G1 X39.707 Y88.019 E3.75858
G1 X39.165 Y87.41 E3.78569
G1 X38.552 Y86.654 E3.81807
G1 X38.007 Y85.846 E3.85048
G1 X37.537 Y84.994 E3.88285
G1 X37.143 Y84.103 E3.91525
G1 X36.83 Y83.181 E3.94763
G1 X36.607 Y82.269 E3.97886
G1 X36.455 Y81.272 E4.0124
G1 X36.394 Y80.299 E4.04483
G1 X36.416 Y79.396 E4.07487
G1 X36.493 Y78.627 E4.10058
G1 X36.616 Y77.721 E4.13099
G1 X36.935 Y75.092 E4.21907
G1 X37.165 Y72.619 E4.30168
G1 X37.328 Y70.089 E4.386
G1 X37.419 Y67.593 E4.46907
G1 X37.44 Y64.966 E4.55645
G1 X37.398 Y62.416 E4.64127
G1 X37.285 Y59.909 E4.72474
G1 X37.102 Y57.392 E4.80868
G1 X36.851 Y54.917 E4.89142
G1 X36.5 Y52.212 E4.98214
G1 X36.421 Y51.24 E5.01458
G1 X36.429 Y50.268 E5.04691
G1 X36.521 Y49.299 E5.07928
G1 X36.699 Y48.341 E5.11169
G1 X36.962 Y47.403 E5.14409
G1 X37.306 Y46.491 E5.17651
G1 X37.729 Y45.616 E5.20884
G1 X38.228 Y44.779 E5.24125
G1 X38.789 Y44.002 E5.27312
G1 X39.142 Y43.578 E5.29147
G1 X39.681 Y42.965 E5.31862
G1 X40.363 Y42.258 E5.35129
G0 F6000 X40.651 Y42.536
G1 F1200 X41.194 Y42.024 E5.37612
G1 X41.83 Y41.472 E5.40413
G1 X42.452 Y40.974 E5.43063
G1 X43.173 Y40.446 E5.46035
G1 X43.83 Y40.007 E5.48663
G1 X44.592 Y39.545 E5.51627
G1 X45.273 Y39.17 E5.54213
G1 X46.071 Y38.774 E5.57176
G1 X46.814 Y38.445 E5.59878
G1 X47.651 Y38.116 E5.6287
G1 X48.399 Y37.859 E5.655
G1 X49.239 Y37.608 E5.68416
G1 X49.988 Y37.419 E5.70985
G1 X50.825 Y37.244 E5.7383
G1 X51.576 Y37.12 E5.76361
G1 X52.453 Y37.013 E5.793
G1 X53.269 Y36.948 E5.82022
G1 X54.155 Y36.915 E5.84971
G1 X54.909 Y36.919 E5.87479
G1 X55.761 Y36.959 E5.90316
G1 X56.568 Y37.031 E5.93011
G1 X57.444 Y37.148 E5.9595
G1 X58.24 Y37.288 E5.98638
G1 X59.099 Y37.478 E6.01564
G1 X59.826 Y37.671 E6.04066
G1 X60.506 Y37.876 E6.06428
G1 X61.183 Y38.111 E6.08812
G1 X61.593 Y38.265 E6.10269
G1 X62.254 Y38.54 E6.1265
G1 X62.929 Y38.848 E6.15118
G1 X63.585 Y39.177 E6.17558
G1 X64.207 Y39.52 E6.19921
G1 X64.586 Y39.742 E6.21382
G1 X65.195 Y40.125 E6.23775
G1 X65.784 Y40.526 E6.26145
G1 X66.366 Y40.952 E6.28543
G1 X67.274 Y41.691 E6.32437
G1 X67.812 Y42.174 E6.34842
G1 X68.343 Y42.686 E6.37295
G1 X68.924 Y43.293 E6.4009
G1 X69.45 Y43.891 E6.42739
G1 X69.915 Y44.46 E6.45183
G1 X70.405 Y45.116 E6.47906
G1 X70.668 Y45.491 E6.4943
G1 X71.035 Y46.05 E6.51654
G1 X71.395 Y46.64 E6.53953
G1 X71.802 Y47.368 E6.56727
G1 X72.15 Y48.057 E6.59294
G1 X72.46 Y48.728 E6.61752
G1 X72.631 Y49.137 E6.63227
G1 X72.918 Y49.88 E6.65876
G1 X73.14 Y50.532 E6.68167
G1 X73.348 Y51.22 E6.70558
G1 X73.53 Y51.902 E6.72905
G1 X73.769 Y53.012 E6.76682
G1 X73.886 Y53.729 E6.79098
G1 X73.981 Y54.475 E6.81599
G1 X74.054 Y55.33 E6.84453
G1 X74.088 Y56.11 E6.8705
G1 X74.095 Y56.824 E6.89425
G1 X74.073 Y57.518 E6.91734
G1 X74.03 Y58.289 E6.94303
G1 X73.88 Y60.474 E7.01587
G1 X73.775 Y63.048 E7.10155
G1 X73.744 Y65.535 E7.18428
G1 X73.784 Y68.044 E7.26774
G1 X73.986 Y71.976 E7.39869
G1 X74.079 Y73.331 E7.44386
G1 X74.123 Y74.45 E7.48111
G1 X74.155 Y75.881 E7.52872
G1 X74.134 Y76.82 E7.55996
G1 X74.034 Y77.718 E7.59001
G1 X73.842 Y78.672 E7.62238
G1 X73.586 Y79.538 E7.65241
G1 X73.3 Y80.284 E7.67898
G1 X72.517 Y82.107 E7.74497
G1 X72.026 Y83.154 E7.78344
G1 X71.62 Y83.92 E7.81227
G1 X71.195 Y84.647 E7.84028
G1 X70.707 Y85.407 E7.87032
G1 X70.276 Y86.016 E7.89513
G1 X69.743 Y86.706 E7.92413
G1 X69.216 Y87.333 E7.95138
G1 X68.601 Y88.003 E7.98162
G1 X68.041 Y88.561 E8.00792
G1 X67.487 Y89.075 E8.03305
G1 X66.923 Y89.556 E8.05771
G1 X66.609 Y89.81 E8.07114
G1 X66.02 Y90.254 E8.09567
G1 X65.386 Y90.698 E8.12142
G1 X64.67 Y91.157 E8.1497
G1 X64.006 Y91.545 E8.17528
G1 X63.184 Y91.977 E8.20617
G1 X62.436 Y92.329 E8.23366
G1 X61.618 Y92.671 E8.26315
G1 X60.884 Y92.943 E8.28919
G1 X60.212 Y93.166 E8.31274
G1 X59.463 Y93.38 E8.33865
G1 X58.615 Y93.584 E8.36766
G1 X58.174 Y93.674 E8.38263
G1 X57.487 Y93.796 E8.40583
G1 X56.749 Y93.897 E8.43061
G1 X55.989 Y93.972 E8.45601
G1 X55.112 Y94.022 E8.48523
G1 X54.286 Y94.034 E8.5127
G1 X53.374 Y94.007 E8.54305
G1 X52.62 Y93.951 E8.56819
G1 X51.797 Y93.857 E8.59575
G1 X50.986 Y93.732 E8.62304
G1 X50.055 Y93.545 E8.65462
G1 X49.296 Y93.356 E8.68064
G1 X48.465 Y93.111 E8.70945
G1 X47.695 Y92.849 E8.7365
G1 X46.849 Y92.52 E8.7667
G1 X46.143 Y92.209 E8.79235
G1 X45.471 Y91.883 E8.8172
G1 X44.798 Y91.521 E8.84261
G1 X44.408 Y91.298 E8.85756
G1 X43.799 Y90.922 E8.88136
G1 X43.211 Y90.53 E8.90487
G1 X42.503 Y90.014 E8.934
G1 X41.878 Y89.518 E8.96054
G1 X41.304 Y89.027 E8.98567
G1 X40.725 Y88.489 E9.01195
G1 X40.464 Y88.233 E9.02411
G1 X39.997 Y87.743 E9.04663
G1 X39.475 Y87.158 E9.0727
G1 X38.883 Y86.43 E9.10391
G1 X38.357 Y85.652 E9.13515
G1 X37.903 Y84.832 E9.16632
G1 X37.522 Y83.974 E9.19755
G1 X37.219 Y83.086 E9.22875
G1 X36.996 Y82.174 E9.25998
G1 X36.854 Y81.246 E9.2912
G1 X36.794 Y80.309 E9.32243
G1 X36.816 Y79.406 E9.35248
G1 X36.889 Y78.681 E9.37671
G1 X37.013 Y77.769 E9.40732
G1 X37.332 Y75.14 E9.49541
G1 X37.563 Y72.656 E9.57838
G1 X37.728 Y70.104 E9.66344
G1 X37.819 Y67.608 E9.74651
G1 X37.84 Y64.969 E9.83429
G1 X37.798 Y62.409 E9.91944
G1 X37.685 Y59.891 E10.00328
G1 X37.501 Y57.363 E10.08758
G1 X37.248 Y54.865 E10.17109
G1 X36.899 Y52.179 E10.26118
G1 X36.821 Y51.243 E10.29242
G1 X36.827 Y50.305 E10.32362
G1 X36.914 Y49.371 E10.35482
G1 X37.084 Y48.448 E10.38603
G1 X37.336 Y47.544 E10.41724
G1 X37.666 Y46.665 E10.44847
G1 X38.073 Y45.82 E10.47967
G1 X38.552 Y45.013 E10.51088
G1 X39.097 Y44.258 E10.54185
G1 X39.443 Y43.842 E10.55985
G1 X39.969 Y43.243 E10.58636
G1 X40.651 Y42.536 E10.61903
G0 F6000 X40.926 Y42.827
G1 F1200 X41.457 Y42.326 E10.64332
G1 X42.08 Y41.784 E10.67078
G1 X42.688 Y41.297 E10.69669
G1 X43.395 Y40.779 E10.72584
G1 X44.038 Y40.349 E10.75157
G1 X44.785 Y39.895 E10.78064
G1 X45.451 Y39.528 E10.80593
G1 X46.233 Y39.14 E10.83497
G1 X46.96 Y38.817 E10.86143
G1 X47.781 Y38.494 E10.89077
G1 X48.513 Y38.242 E10.91652
G1 X49.337 Y37.996 E10.94512
G1 X50.07 Y37.811 E10.97027
G1 X50.891 Y37.639 E10.99817
G1 X51.624 Y37.517 E11.02288
G1 X52.485 Y37.412 E11.05173
G1 X53.284 Y37.348 E11.07839
G1 X54.153 Y37.315 E11.10731
G1 X54.89 Y37.319 E11.13183
G1 X55.742 Y37.359 E11.1602
G1 X56.515 Y37.428 E11.18601
G1 X57.375 Y37.542 E11.21486
G1 X58.154 Y37.679 E11.24117
G1 X58.997 Y37.865 E11.26988
G1 X59.711 Y38.054 E11.29445
G1 X60.375 Y38.254 E11.31751
G1 X61.042 Y38.485 E11.34099
G1 X61.439 Y38.634 E11.35509
G1 X62.088 Y38.904 E11.37847
G1 X62.75 Y39.206 E11.40267
G1 X63.392 Y39.527 E11.42655
G1 X64.006 Y39.866 E11.44988
G1 X64.373 Y40.08 E11.46401
G1 X64.97 Y40.456 E11.48747
G1 X65.548 Y40.849 E11.51072
G1 X66.13 Y41.275 E11.53471
G1 X67.007 Y41.988 E11.5723
G1 X67.534 Y42.462 E11.59588
G1 X68.054 Y42.963 E11.61989
G1 X68.635 Y43.57 E11.64784
G1 X69.14 Y44.144 E11.67327
G1 X69.595 Y44.7 E11.69716
G1 X70.078 Y45.346 E11.72399
G1 X70.334 Y45.71 E11.73879
G1 X70.694 Y46.259 E11.76063
G1 X71.046 Y46.835 E11.78308
G1 X71.445 Y47.549 E11.81028
G1 X71.787 Y48.225 E11.83548
G1 X72.091 Y48.883 E11.85959
G1 X72.258 Y49.281 E11.87394
G1 X72.539 Y50.009 E11.8999
G1 X72.757 Y50.648 E11.92235
G1 X72.962 Y51.323 E11.94582
G1 X73.14 Y51.99 E11.96878
G1 X73.297 Y52.69 E11.99264
G1 X73.374 Y53.076 E12.00573
G1 X73.489 Y53.78 E12.02946
G1 X73.582 Y54.509 E12.0539
G1 X73.654 Y55.348 E12.08191
G1 X73.688 Y56.114 E12.10741
G1 X73.695 Y56.812 E12.13063
G1 X73.674 Y57.496 E12.15339
G1 X73.631 Y58.262 E12.1789
G1 X73.48 Y60.458 E12.25212
G1 X73.375 Y63.032 E12.3378
G1 X73.344 Y65.53 E12.42089
G1 X73.384 Y68.05 E12.50471
G1 X73.587 Y72.003 E12.63637
G1 X73.679 Y73.347 E12.68117
G1 X73.723 Y74.459 E12.71819
G1 X73.755 Y75.873 E12.76523
G1 X73.736 Y76.776 E12.79527
G1 X73.636 Y77.674 E12.82532
G1 X73.458 Y78.559 E12.85535
G1 X73.202 Y79.425 E12.88538
G1 X72.932 Y80.126 E12.91037
G1 X72.155 Y81.937 E12.97591
G1 X71.673 Y82.967 E13.01373
G1 X71.275 Y83.718 E13.042
G1 X70.859 Y84.431 E13.06946
G1 X70.38 Y85.176 E13.09892
G1 X69.959 Y85.772 E13.12319
G1 X69.437 Y86.449 E13.15162
G1 X68.921 Y87.063 E13.1783
G1 X68.318 Y87.72 E13.20796
G1 X67.769 Y88.268 E13.23376
G1 X67.227 Y88.771 E13.25835
G1 X66.671 Y89.245 E13.28265
G1 X66.368 Y89.491 E13.29563
G1 X65.791 Y89.926 E13.31966
G1 X65.17 Y90.361 E13.34488
G1 X64.468 Y90.812 E13.37263
G1 X63.82 Y91.191 E13.3976
G1 X63.014 Y91.615 E13.42789
G1 X62.281 Y91.96 E13.45484
G1 X61.479 Y92.296 E13.48376
G1 X60.758 Y92.563 E13.50933
G1 X60.102 Y92.781 E13.53232
G1 X59.369 Y92.991 E13.55768
G1 X58.535 Y93.192 E13.58622
G1 X58.104 Y93.28 E13.60085
G1 X57.433 Y93.4 E13.62352
G1 X56.709 Y93.499 E13.64782
G1 X55.966 Y93.573 E13.67266
G1 X55.106 Y93.622 E13.70131
G1 X54.298 Y93.634 E13.72819
G1 X53.403 Y93.608 E13.75797
G1 X52.665 Y93.554 E13.78258
G1 X51.858 Y93.462 E13.80959
G1 X51.065 Y93.34 E13.83628
G1 X50.152 Y93.157 E13.86725
G1 X49.409 Y92.972 E13.89272
G1 X48.594 Y92.732 E13.92097
G1 X47.84 Y92.476 E13.94746
G1 X47.01 Y92.154 E13.97707
G1 X46.317 Y91.849 E14.00225
G1 X45.66 Y91.531 E14.02653
G1 X44.996 Y91.174 E14.0516
G1 X44.618 Y90.958 E14.06608
G1 X44.021 Y90.589 E14.08943
G1 X43.433 Y90.197 E14.11293
G1 X42.752 Y89.701 E14.14095
G1 X42.138 Y89.214 E14.16702
G1 X41.576 Y88.734 E14.1916
G1 X41.005 Y88.203 E14.21753
G1 X40.754 Y87.957 E14.22922
G1 X40.287 Y87.467 E14.25174
G1 X39.785 Y86.905 E14.2768
G1 X39.214 Y86.205 E14.30685
G1 X38.707 Y85.458 E14.33687
G1 X38.268 Y84.669 E14.3669
G1 X37.9 Y83.844 E14.39695
G1 X37.607 Y82.99 E14.42698
G1 X37.391 Y82.113 E14.45702
G1 X37.253 Y81.22 E14.48707
G1 X37.194 Y80.319 E14.5171
G1 X37.216 Y79.416 E14.54715
G1 X37.285 Y78.735 E14.56991
G1 X37.409 Y77.823 E14.60053
G1 X37.729 Y75.188 E14.68881
G1 X37.961 Y72.693 E14.77215
G1 X38.128 Y70.119 E14.85794
G1 X38.219 Y67.623 E14.94102
G1 X38.24 Y64.972 E15.02919
G1 X38.198 Y62.402 E15.11468
G1 X38.085 Y59.873 E15.19888
G1 X37.9 Y57.334 E15.28355
G1 X37.645 Y54.813 E15.36783
G1 X37.298 Y52.145 E15.45731
G1 X37.221 Y51.245 E15.48736
G1 X37.225 Y50.342 E15.51739
G1 X37.308 Y49.443 E15.54742
G1 X37.47 Y48.555 E15.57744
G1 X37.711 Y47.684 E15.6075
G1 X38.027 Y46.838 E15.63754
G1 X38.417 Y46.024 E15.66756
G1 X38.877 Y45.247 E15.69759
G1 X39.405 Y44.514 E15.72764
G1 X39.744 Y44.106 E15.74528
G1 X40.257 Y43.521 E15.77116
G1 X40.926 Y42.827 E15.80322
G1 F1500 E9.30322
;MESH:tubeHolder.stl
G0 F6000 X48.762 Y48.901
G0 X49.437 Y49.748
G0 X50.49 Y49.794
;TYPE:WALL-INNER
G1 F1500 E15.80322
G1 F1036.7 X50.929 Y49.559 E15.82239
G1 F1027.8 X51.645 Y49.242 E15.8528
G1 F1025.6 X52.167 Y49.071 E15.87417
G1 F1039 X52.455 Y48.989 E15.88567
G1 F1036.7 X52.81 Y48.905 E15.89972
G1 X53.165 Y48.838 E15.91363
G1 X53.479 Y48.795 E15.92583
G1 F1023.5 X54.006 Y48.743 E15.94648
G1 F1030 X54.793 Y48.745 E15.97697
G1 F1039 X55.436 Y48.803 E16.00178
G1 F1043.5 X56.133 Y48.925 E16.02884
G1 F1039 X56.754 Y49.092 E16.05354
G1 F1032.3 X57.367 Y49.311 E16.07871
G1 F1027.8 X58.05 Y49.624 E16.10789
G1 F1025.6 X58.535 Y49.904 E16.12968
G1 F1041.2 X58.821 Y50.09 E16.14276
G1 F1045.8 X59.108 Y50.294 E16.1562
G1 F1048 X59.36 Y50.488 E16.16831
G1 F1043.5 X59.616 Y50.705 E16.18114
G1 F1027.8 X60.081 Y51.151 E16.20616
G1 F1030 X60.527 Y51.657 E16.2323
G1 F1032.3 X60.924 Y52.194 E16.25812
G1 F1034.5 X61.278 Y52.768 E16.28414
G1 X61.567 Y53.341 E16.3089
G1 F1039 X61.834 Y54.01 E16.33657
G1 F1034.5 X62.015 Y54.61 E16.36075
G1 F1025.6 X62.149 Y55.231 E16.38547
G1 F1043.5 X62.19 Y55.492 E16.39558
G1 X62.237 Y55.917 E16.41193
G1 F1041.2 X62.258 Y56.226 E16.4238
G1 F1043.5 X62.266 Y56.567 E16.43685
G1 F1045.8 X62.259 Y56.939 E16.45105
G1 X62.241 Y57.216 E16.46165
G1 F1030 X62.179 Y57.79 E16.48402
